svgs/light/box-check.svg

<svg xmlns="http://www.w3.org/2000/svg" viewBox="0 0 448 512"><!-- Font Awesome Pro 6.0.0-alpha2 by @fontawesome - https://fontawesome.com License - https://fontawesome.com/license (Commercial License) --><path d="M442.932 162.084L391.148 58.529C383.018 42.27 366.398 32 348.219 32H99.781C81.596 32 64.973 42.273 56.84 58.539L5.066 162.086C1.734 168.75 0 176.098 0 183.547V416C0 451.346 28.654 480 64 480H384C419.346 480 448 451.346 448 416V183.547C448 176.096 446.266 168.748 442.932 162.084ZM240 64H348.219C354.344 64 359.812 67.375 362.531 72.844L406.109 160H240V64ZM85.469 72.828C88.188 67.375 93.656 64 99.781 64H208V160H41.889L85.469 72.828ZM416 416C416 433.674 401.674 448 384 448H64C46.326 448 32 433.674 32 416V192H416V416ZM186.031 379.312C189.156 382.438 193.25 384 197.344 384S205.531 382.438 208.656 379.312L315.312 272.641C321.562 266.391 321.562 256.266 315.312 250.016S298.937 243.766 292.688 250.016L197.344 345.375L155.312 303.359C149.062 297.109 138.937 297.109 132.688 303.359S126.438 319.734 132.688 325.984L186.031 379.312Z"/></svg>

<svg xmlns="http://www.w3.org/2000/svg" viewBox="0 0 448 512"><!--! Font Awesome Pro 6.0.0-alpha3 by @fontawesome - https://fontawesome.com License - https://fontawesome.com/license (Commercial License) --><path d="M442.9 162.1l-51.78-103.6C383 42.27 366.4 32 348.2 32H99.78C81.6 32 64.97 42.27 56.84 58.54L5.066 162.1C1.734 168.8 0 176.1 0 183.5V416c0 35.35 28.65 64 64 64h320c35.35 0 64-28.65 64-64V183.5C448 176.1 446.3 168.7 442.9 162.1zM240 64h108.2c6.125 0 11.59 3.375 14.31 8.844L406.1 160H240V64zM85.47 72.83C88.19 67.38 93.66 64 99.78 64H208v96H41.89L85.47 72.83zM416 416c0 17.67-14.33 32-32 32H64c-17.67 0-32-14.33-32-32V192h384V416zM186 379.3C189.2 382.4 193.3 384 197.3 384s8.188-1.562 11.31-4.688l106.7-106.7c6.25-6.25 6.25-16.38 0-22.62s-16.38-6.25-22.62 0l-95.34 95.36L155.3 303.4c-6.25-6.25-16.38-6.25-22.62 0s-6.25 16.38 0 22.62L186 379.3z"/></svg>
